img/icons/date.svg

<svg width="59" height="56" viewBox="0 0 59 56" fill="none" xmlns="http://www.w3.org/2000/svg">
<path d="M22.25 25.6665H17.4167V30.3332H22.25V25.6665ZM31.9167 25.6665H27.0833V30.3332H31.9167V25.6665ZM41.5833 25.6665H36.75V30.3332H41.5833V25.6665ZM46.4167 9.33317H44V4.6665H39.1667V9.33317H19.8333V4.6665H15V9.33317H12.5833C9.90083 9.33317 7.77417 11.4332 7.77417 13.9998L7.75 46.6665C7.75 49.2332 9.90083 51.3332 12.5833 51.3332H46.4167C49.075 51.3332 51.25 49.2332 51.25 46.6665V13.9998C51.25 11.4332 49.075 9.33317 46.4167 9.33317ZM46.4167 46.6665H12.5833V20.9998H46.4167V46.6665Z" fill="white"/>
</svg>

<svg width="59" height="56" fill="none" xmlns="http://www.w3.org/2000/svg"><path d="M22.25 25.666h-4.833v4.667h4.833v-4.666zm9.667 0h-4.834v4.667h4.834v-4.666zm9.666 0H36.75v4.667h4.833v-4.666zm4.834-16.333H44V4.666h-4.833v4.667H19.833V4.666H15v4.667h-2.417c-2.682 0-4.809 2.1-4.809 4.667L7.75 46.666c0 2.567 2.15 4.667 4.833 4.667h33.834c2.658 0 4.833-2.1 4.833-4.666V14c0-2.567-2.175-4.667-4.833-4.667zm0 37.334H12.583V21h33.834v25.666z" fill="#fff"/></svg>
